X: 1
T: le reel des Menteries
C: Normand Miron
O: Qu\'ebec
S: handout at Roaring Jelly practice Jan 2017
R: reel
Z: 2017 John Chambers <jc:trillian.mit.edu>
M: C|
L: 1/16
K: D
|:\
"D"A,DDA, [D3A,3]D | "A7"CDEF GECE |\
[1,3 "D"A,DDA, [D3A,3]D | "A7"CDEF GECE :|\
[2,4 "D"A,DFA dAFD | "A7"EDCE D2[D2A,2] :|
|:\
"D"d2Ad dfed | "A7"cABc BAFA | "D"dcBA FADF |\
[1 "A7"EDCD EABc :|[3 "A7"CDEF GABc :|[2,4 "A7"EDCE "D"D2[D2A,2] |]
